Sources/FrostedUI/Resources/Icons.xcassets/cubeFilled12.imageset/cube-filled-12.svg

<svg
  width="12"
  height="12"
  viewBox="0 0 12 12"
  fill="none"
  xmlns="http://www.w3.org/2000/svg"
  data-fui-icon="true"
>
  <path
    d="M5.60938 1.36719C5.84375 1.28906 6.13672 1.28906 6.37109 1.36719L10.2773 2.85156C10.707 3.00781 11 3.41797 11 3.88672V8.63281C11 9.10156 10.707 9.49219 10.2773 9.66797L6.37109 11.1523C6.13672 11.2305 5.84375 11.2305 5.60938 11.1523L1.70312 9.66797C1.27344 9.49219 1 9.10156 1 8.63281V3.88672C1 3.41797 1.27344 3.00781 1.70312 2.85156L5.60938 1.36719ZM6.03906 2.24609C6.01953 2.24609 5.96094 2.24609 5.94141 2.24609L2.23047 3.65234L6 5.13672L9.75 3.65234L6.03906 2.24609ZM2.03516 8.78906L5.53125 10.1172V5.95703L1.9375 4.55078V8.63281C1.9375 8.71094 1.97656 8.76953 2.03516 8.78906ZM6.46875 10.1172L9.94531 8.78906C10.0039 8.76953 10.0625 8.71094 10.0625 8.63281V4.55078L6.46875 5.95703V10.1172Z"
    fill="currentColor"
  />
</svg>

<svg xmlns="http://www.w3.org/2000/svg" width="12" height="12" fill="none" data-fui-icon="true" viewBox="0 0 12 12"><path fill="currentColor" d="M5.61 1.367c.234-.078.527-.078.761 0l3.906 1.485A1.1 1.1 0 0 1 11 3.887v4.746c0 .469-.293.86-.723 1.035l-3.906 1.484a1.27 1.27 0 0 1-.762 0L1.703 9.668A1.1 1.1 0 0 1 1 8.633V3.887c0-.469.273-.88.703-1.035zm.43.88H5.94l-3.71 1.405L6 5.137l3.75-1.485zM2.034 8.788l3.496 1.328v-4.16L1.938 4.551v4.082c0 .078.039.137.097.156m4.434 1.328L9.945 8.79a.17.17 0 0 0 .117-.156V4.55L6.47 5.957z"/></svg>
